dist/svg/game-fill.svg

<svg xmlns="http://www.w3.org/2000/svg" viewBox="0 0 24 24"><path d="M6.31 5.285C4.941 5.417 3.637 6.474 3.207 7.8a5 5 0 0 0-.125.447c-.044.199-.642 7.258-.642 7.571 0 .274.11.763.246 1.089.355.856 1.103 1.502 2.036 1.757.35.096 1.083.097 1.438.001.143-.038.427-.15.63-.248.467-.225.745-.482 1.495-1.382.306-.369.645-.734.751-.812.259-.19.655-.372.92-.422.286-.054 3.802-.054 4.088 0 .265.05.661.232.92.422.106.078.445.443.751.812.75.9 1.028 1.157 1.495 1.382.526.253.8.318 1.35.318 1.02 0 1.884-.457 2.474-1.308.294-.425.526-1.134.526-1.609 0-.4-.604-7.389-.659-7.626-.134-.58-.317-.979-.652-1.424a3.73 3.73 0 0 0-2.632-1.486c-.53-.051-10.783-.048-11.307.003m2.055 3.058a.8.8 0 0 1 .353.448c.023.082.042.334.042.559v.41h.462c.599 0 .777.08.953.428.128.253.049.673-.161.857-.183.161-.32.195-.792.195H8.76v.41c0 .473-.042.659-.186.83a.74.74 0 0 1-1.098.045c-.187-.187-.235-.366-.236-.875v-.41h-.471c-.536 0-.662-.043-.868-.298-.11-.136-.121-.176-.121-.439 0-.255.013-.306.112-.436.191-.25.355-.307.886-.307h.462v-.41c0-.225.019-.477.042-.559.045-.164.2-.368.332-.439a.87.87 0 0 1 .751-.009m8.902.46c.249.094.49.436.492.699.001.185-.177.504-.345.618-.121.082-.196.1-.414.1-.335 0-.516-.109-.661-.398-.118-.235-.123-.384-.023-.606.171-.377.579-.554.951-.413m-2 2c.249.094.49.436.492.699.001.185-.177.504-.345.618-.121.082-.196.1-.414.1-.335 0-.516-.109-.661-.398-.118-.235-.123-.384-.023-.606.171-.377.579-.554.951-.413"/></svg>

<svg fill="none" xmlns="http://www.w3.org/2000/svg" viewBox="0 0 24 24"><path d="M6.310 5.285 C 4.941 5.417,3.637 6.474,3.207 7.800 C 3.160 7.943,3.104 8.144,3.082 8.247 C 3.038 8.446,2.440 15.505,2.440 15.818 C 2.440 16.092,2.550 16.581,2.686 16.907 C 3.041 17.763,3.789 18.409,4.722 18.664 C 5.072 18.760,5.805 18.761,6.160 18.665 C 6.303 18.627,6.587 18.515,6.790 18.417 C 7.257 18.192,7.535 17.935,8.285 17.035 C 8.591 16.666,8.930 16.301,9.036 16.223 C 9.295 16.033,9.691 15.851,9.956 15.801 C 10.242 15.747,13.758 15.747,14.044 15.801 C 14.309 15.851,14.705 16.033,14.964 16.223 C 15.070 16.301,15.409 16.666,15.715 17.035 C 16.465 17.935,16.743 18.192,17.210 18.417 C 17.736 18.670,18.010 18.735,18.560 18.735 C 19.580 18.735,20.444 18.278,21.034 17.427 C 21.328 17.002,21.560 16.293,21.560 15.818 C 21.560 15.418,20.956 8.429,20.901 8.192 C 20.767 7.612,20.584 7.213,20.249 6.768 C 19.611 5.918,18.658 5.380,17.617 5.282 C 17.087 5.231,6.834 5.234,6.310 5.285 M8.365 8.343 C 8.514 8.419,8.670 8.617,8.718 8.791 C 8.741 8.873,8.760 9.125,8.760 9.350 L 8.760 9.760 9.222 9.760 C 9.821 9.760,9.999 9.840,10.175 10.188 C 10.303 10.441,10.224 10.861,10.014 11.045 C 9.831 11.206,9.694 11.240,9.222 11.240 L 8.760 11.240 8.760 11.650 C 8.760 12.123,8.718 12.309,8.574 12.480 C 8.289 12.818,7.789 12.839,7.476 12.525 C 7.289 12.338,7.241 12.159,7.240 11.650 L 7.240 11.240 6.769 11.240 C 6.233 11.240,6.107 11.197,5.901 10.942 C 5.791 10.806,5.780 10.766,5.780 10.503 C 5.780 10.248,5.793 10.197,5.892 10.067 C 6.083 9.817,6.247 9.760,6.778 9.760 L 7.240 9.760 7.240 9.350 C 7.240 9.125,7.259 8.873,7.282 8.791 C 7.327 8.627,7.482 8.423,7.614 8.352 C 7.831 8.235,8.147 8.232,8.365 8.343 M17.267 8.803 C 17.516 8.897,17.757 9.239,17.759 9.502 C 17.760 9.687,17.582 10.006,17.414 10.120 C 17.293 10.202,17.218 10.220,17.000 10.220 C 16.665 10.220,16.484 10.111,16.339 9.822 C 16.221 9.587,16.216 9.438,16.316 9.216 C 16.487 8.839,16.895 8.662,17.267 8.803 M15.267 10.803 C 15.516 10.897,15.757 11.239,15.759 11.502 C 15.760 11.687,15.582 12.006,15.414 12.120 C 15.293 12.202,15.218 12.220,15.000 12.220 C 14.665 12.220,14.484 12.111,14.339 11.822 C 14.221 11.587,14.216 11.438,14.316 11.216 C 14.487 10.839,14.895 10.662,15.267 10.803 " stroke="none" fill-rule="evenodd"/></svg>
